icons/type-icons/icons/application-x-kplato.svg

<?xml version="1.0" encoding="UTF-8"?>
<svg width="22" height="22" version="1.1" xmlns="http://www.w3.org/2000/svg">
 <g id="layer1" transform="translate(-326 -534.36)">
  <g id="layer1-1" transform="translate(-95.714 8.5715)" fill="#f27935">
   <path id="rect3343" transform="translate(421.71 525.79)" d="m5 8v3h1v-1h4v1h1v-3h-1v1h-4v-1h-1zm6 6v3h1v-1h4v1h1v-3h-1v1h-4v-1h-1z" color="#4d4d4d"/>
   <path id="rect3370" transform="translate(421.71 525.79)" d="m6 3s-1-3e-5 -1 1h-2v15h16v-15h-2c0-1-1-1-1-1h-3s-1-3e-5 -1 1h-2c0-1-1-1-1-1h-3zm0 1h3v1h-3v-1zm7 0h3v1h-3v-1zm-9 3h14v11h-14v-11z" color="#4d4d4d"/>
  </g>
 </g>
</svg>

<?xml version="1.0" encoding="UTF-8" standalone="no"?>

<!-- Created with Inkscape (http://www.inkscape.org/) -->
<svg width="22" version="1.1" xmlns="http://www.w3.org/2000/svg" height="22" xmlns:inkscape="http://www.inkscape.org/namespaces/inkscape">
 <defs id="defs3871"/>
 <metadata id="metadata3874"/>
 <g inkscape:label="Capa 1" inkscape:groupmode="layer" id="layer1" transform="matrix(1 0 0 1 -326 -534.3622)">
  <g inkscape:label="Capa 1" style="fill:#f27935" id="layer1-1" transform="matrix(1 0 0 1 -95.71429 8.57146)">
   <path inkscape:connector-curvature="0" style="color:#4d4d4d" id="rect3343" d="m 5,8 0,3 1,0 0,-1 4,0 0,1 1,0 0,-3 -1,0 0,1 L 6,9 6,8 5,8 Z m 6,6 0,3 1,0 0,-1 4,0 0,1 1,0 0,-3 -1,0 0,1 -4,0 0,-1 -1,0 z" transform="matrix(1 0 0 1 421.71429 525.79074)"/>
   <path inkscape:connector-curvature="0" style="color:#4d4d4d" id="rect3370" d="m 6,3 c 0,0 -1,-3e-5 -1,1 l -2,0 0,3 0,11 0,1 16,0 0,-1 0,-11 0,-3 -2,0 C 17,2.99997 16,3 16,3 l -3,0 c 0,0 -1,-3e-5 -1,1 L 10,4 C 10,2.99997 9,3 9,3 L 6,3 Z M 6,4 9,4 9,5 6,5 6,4 Z m 7,0 3,0 0,1 -3,0 0,-1 z M 4,7 18,7 18,18 4,18 4,7 Z" transform="matrix(1 0 0 1 421.71429 525.79074)"/>
  </g>
 </g>
</svg>
